X:1
T:Title
%%score { ( 1 3 4 ) | ( 2 5 6 ) }
L:1/8
M:6/8
K:G
V:1 treble nm="Grand Piano"
V:3 treble 
V:4 treble 
V:2 bass 
V:5 bass 
V:6 bass 
V:1
 z3 z2[Q:1/4=100] D | .B6 | d3 z3 | B3 z3 |[M:5/8] G-G- G3 |[M:1/8] G |[M:3/4] z E E c2 c | B4 z2 | %8
 z ^C C F2 G |[M:5/8] A-A- A3 |[M:1/8] z |[M:3/4] [GB]4 z2 | [Bd]4 z2 | [DB]4 z2 |[M:5/8] G-G- G3 | %15
[M:1/8] z |[M:3/4] [E^G]4 z2 | [Bd]4 z2 | z A, A, F2 F | [B,G]6 |[M:1/8] d |[M:3/4] e2 d B2 G | %22
 E2 G D2 B | B2 [^GB] [Gc]2 G |[M:5/8] B3 A2 |[M:1/8] c |[M:3/4] [Fe]2 [Fe] [Fd]2 [Fc] | %27
 d2 B G2 F | [^CE]2 [CE] [CF]2 [CG] |[M:5/8] A3 d2 |[M:1/8] d |[M:3/4] e2 d B2 G | %32
[M:13/16] E-<EGD-<DB3/2 |[M:3/4] B2 B c2 B |[M:5/8] [DB]3 [CA]2 |[M:1/8] [Ec] | %36
[M:3/4] [Fe]2 [Fe] [Fd]2 [Fc] | B2 A G2 [G^c] | [Gd]2 [DGB] [CFB]2 [CFA] | %39
[M:5/8] [B,G]-[B,G]- [B,G]3 |] %40
V:2
 z6 | z [G,B,D][G,B,D] .[G,B,D]3 | z [G,B,D][G,B,D] .[G,B,D]3 | z[K:treble] [CD][CD] .[CDF]3 | %4
[M:5/8][K:bass] z [G,B,][G,B,] [G,B,]2 |[M:1/8] z |[M:3/4] z [G,C] [G,C] .[G,CE]3 | %7
 z [G,B,] [G,B,] .[G,B,D]3 | z [G,A,] [G,A,] .[G,A,^C]3 |[M:5/8] z CA, F,2 |[M:1/8] D | %11
[M:3/4] z D, .D,2[K:treble] FG | z D, D, D,2 D | z F, F, [F,C]2 C |[M:5/8] z D,D, D,2 |[M:1/8] G | %16
[M:3/4] z E, E, [E,^G,D]2 ^G | z A, A, A,2 A | z F, F, [F,A,CD]2 C | G,,6 | %20
[M:1/8][K:treble] [G,B,G] |[M:3/4] [G,CG]2 [G,B,G] [G,D]2 [G,B,D] | [G,C]2 [G,CE] [G,B,]2 [G,B,D] | %23
 [^G,DE]2 [E,D] [E,D]2 [E,B,D] |[M:5/8] [A,CE]-[A,CE]- [A,CE]3 |[M:1/8] [A,E] | %26
[M:3/4] [D,C]2 [D,C] [D,C]2 [D,A,] | [G,B,D]2 [G,B,D] [G,B,D]2 [G,D] | %28
 [A,,A,]2 [A,,A,] [A,,G,]2 [A,,G,] |[M:5/8] [D,F,C]-[D,F,C]- [D,F,C]3 |[M:1/8][K:treble] [G,B,G] | %31
[M:3/4] [G,CG]2 [G,B,G] [G,D]2 [G,B,D] | %32
[M:13/16][K:bass] [G,C]-<[G,C][G,CE][G,B,]-<[G,B,][G,D]3/2 | %33
[M:3/4] [E,^G,D]2 [E,G,D] [E,G,E]2 [E,G,D] |[M:5/8] [A,,A,]-[A,,A,]- [A,,A,]3 |[M:1/8] [A,C] | %36
[M:3/4] [E,C]2 [D,C] [D,C]2 [D,A,] | [G,B,D]2 A, G,2 [^D,_B,] | [D,B,]2 D, D,2 D, | %39
[M:5/8] G,-G,- G,3 |] %40
V:3
 x6 | z GG z _B=B | z GG G2 B | z FF A2 A |[M:5/8] z DD D2 |[M:1/8] x |[M:3/4] G4 z2 | z D D G3 | %8
 E4 z2 |[M:5/8] z FE D2 |[M:1/8] x |[M:3/4] z [G,B,] .[G,B,]2 _B=B | z [G,B,] [G,B,] [G,B,DG]2 B | %13
 z C C A2 A |[M:5/8] B,[G,B,]B,- [G,B,C]2 |[M:1/8] x |[M:3/4] z [^G,D] [G,D] [FA]2 B | %17
 z [CE] [CE] [CEAc]2 c | [CE]4 z2 | z G, G, G,3 |[M:1/8] x |[M:3/4] x6 | x6 | x6 |[M:5/8] x5 | %25
[M:1/8] x |[M:3/4] x6 | x6 | x6 |[M:5/8] x5 |[M:1/8] x |[M:3/4] x6 |[M:13/16] x13/2 |[M:3/4] x6 | %34
[M:5/8] x5 |[M:1/8] x |[M:3/4] x6 | x6 | x6 |[M:5/8] x5 |] %40
V:4
 x6 | z3 .G3 | x6 | x6 |[M:5/8] x5 |[M:1/8] x |[M:3/4] x6 | x6 | x6 |[M:5/8] x5 |[M:1/8] x | %11
[M:3/4] z2 z .[G,B,]3 | x6 | x6 |[M:5/8] z2 G, z2 |[M:1/8] x |[M:3/4] x6 | x6 | x6 | x6 | %20
[M:1/8] x |[M:3/4] x6 | x6 | x6 |[M:5/8] x5 |[M:1/8] x |[M:3/4] x6 | x6 | x6 |[M:5/8] x5 | %30
[M:1/8] x |[M:3/4] x6 |[M:13/16] x13/2 |[M:3/4] x6 |[M:5/8] x5 |[M:1/8] x |[M:3/4] x6 | x6 | x6 | %39
[M:5/8] x5 |] %40
V:5
 x6 | G,,6 | G,,6 | D,6[K:treble] |[M:5/8][K:bass] G,,-G,,- G,,3 |[M:1/8] x |[M:3/4] C,6 | G,,6 | %8
 A,,6 |[M:5/8] D,-D,- D,3 |[M:1/8] x |[M:3/4] z2 z .D,3[K:treble] | G,,6 | D,6 | %14
[M:5/8] G,,-G,,- G,,3 |[M:1/8] x |[M:3/4] E,,6 | A,,6 | D,6 | x6 |[M:1/8][K:treble] x |[M:3/4] x6 | %22
 x6 | x6 |[M:5/8] x5 |[M:1/8] x |[M:3/4] x6 | x6 | x6 |[M:5/8] x5 |[M:1/8][K:treble] x | %31
[M:3/4] x6 |[M:13/16][K:bass] x13/2 |[M:3/4] x6 |[M:5/8] x5 |[M:1/8] x |[M:3/4] x6 | x6 | x6 | %39
[M:5/8] x5 |] %40
V:6
 x6 | x6 | x6 | x[K:treble] x5 |[M:5/8][K:bass] x5 |[M:1/8] x |[M:3/4] x6 | x6 | x6 |[M:5/8] x5 | %10
[M:1/8] x |[M:3/4] G,,6[K:treble] | x6 | x6 |[M:5/8] x5 |[M:1/8] x |[M:3/4] x6 | x6 | x6 | x6 | %20
[M:1/8][K:treble] x |[M:3/4] x6 | x6 | x6 |[M:5/8] x5 |[M:1/8] x |[M:3/4] x6 | x6 | x6 | %29
[M:5/8] x5 |[M:1/8][K:treble] x |[M:3/4] x6 |[M:13/16][K:bass] x13/2 |[M:3/4] x6 |[M:5/8] x5 | %35
[M:1/8] x |[M:3/4] x6 | x6 | x6 |[M:5/8] x5 |] %40

